svg/misc/timeslots-o.svg

<svg width="544" height="512" viewBox="0 0 544 512" version="1.1" xmlns="http://www.w3.org/2000/svg"><path fill="currentColor" d="M128,480l-96,0c-17.673,0 -32,-14.327 -32,-32l0,-64c0,-17.654 14.297,-31.97 32,-32l96,0c17.703,0.03 32,14.346 32,32l0,64c0,17.654 -14.297,31.97 -32,32Zm192,0l-96,0c-17.673,0 -32,-14.327 -32,-32l0,-64c0,-17.673 14.327,-32 32,-32l96,0c17.673,0 32,14.327 32,32l0,64c0,17.636 -14.267,31.939 -32,32Zm192,0l-96,0c-17.673,0 -32,-14.327 -32,-32l0,-64c0,-17.654 14.297,-31.97 32,-32l96,0c17.703,0.03 32,14.346 32,32l0,64c0,17.654 -14.297,31.97 -32,32Zm-192,-96l-96,0l0,64l96,0l0,-64Zm-192,0l-96,0l0,64l96,0l0,-64Zm384,0l-96,0l0,64l96,0l0,-64Zm-384,-64l-96,0c-17.673,0 -32,-14.327 -32,-32l0,-64c0,-17.654 14.297,-31.97 32,-32l96,0c17.703,0.03 32,14.346 32,32l0,64c0,17.654 -14.297,31.97 -32,32Zm192,0l-96,0c-17.673,0 -32,-14.327 -32,-32l0,-64c0,-17.673 14.327,-32 32,-32l96,0c17.673,0 32,14.327 32,32l0,64c0,17.636 -14.267,31.939 -32,32Zm192,0l-96,0c-17.673,0 -32,-14.327 -32,-32l0,-64c0,-17.673 14.327,-32 32,-32l96,0c17.673,0 32,14.327 32,32l0,64c0,17.636 -14.267,31.939 -32,32Zm-192,-96l-96,0l0,64l96,0l0,-64Zm-192,0l-96,0l0,64l96,0l0,-64Zm384,0l-96,0l0,64l96,0l0,-64Zm-384,-64l-96,0c-17.673,0 -32,-14.327 -32,-32l0,-64c0,-17.673 14.327,-32 32,-32l96,0c17.673,0 32,14.327 32,32l0,64c0,17.636 -14.267,31.939 -32,32Zm192,0l-96,0c-17.673,0 -32,-14.327 -32,-32l0,-64c0,-17.673 14.327,-32 32,-32l96,0c17.673,0 32,14.327 32,32l0,64c0,17.636 -14.267,31.939 -32,32Zm192,0l-96,0c-17.673,0 -32,-14.327 -32,-32l0,-64c0,-17.673 14.327,-32 32,-32l96,0c17.673,0 32,14.327 32,32l0,64c0,17.636 -14.267,31.939 -32,32Zm-384,-96l-96,0l0,64l96,0l0,-64Zm192,0l-96,0l0,64l96,0l0,-64Zm192,0l-96,0l0,64l96,0l0,-64Z"></path></svg>

<svg width="544" height="512" viewBox="0 0 544 512" fill="none" xmlns="http://www.w3.org/2000/svg">
<path fill-rule="evenodd" clip-rule="evenodd" d="M0 288C1.90735e-06 305.673 14.3269 320 32 320H128C145.673 320 160 305.673 160 288V224C160 206.327 145.673 192 128 192H32C14.3269 192 1.90735e-06 206.327 1.90735e-06 224L0 288ZM0 448C1.90735e-06 465.673 14.3269 480 32 480H128C145.673 480 160 465.673 160 448V384C160 366.327 145.673 352 128 352H32C14.3269 352 1.90735e-06 366.327 1.90735e-06 384L0 448ZM128 64H32V128H128V64ZM320 64H224V128H320V64ZM352 128C352 145.673 337.673 160 320 160H224C206.327 160 192 145.673 192 128V64C192 46.3269 206.327 32 224 32H320C337.673 32 352 46.3269 352 64V128ZM224 288H320V224H224V288ZM320 384H224V448H320V384ZM416 64V128H512V64H416ZM512 224H416V288H512V224ZM512.019 287.978L512.018 287.979C512.02 287.976 512.02 287.976 512.019 287.978ZM1.90735e-06 64C1.90735e-06 46.3269 14.3269 32 32 32H128C145.673 32 160 46.3269 160 64V128C160 145.673 145.673 160 128 160H32C14.3269 160 1.90735e-06 145.673 1.90735e-06 128V64ZM32 224V288H128V224H32ZM32 384V448H128V384H32ZM192 224C192 206.327 206.327 192 224 192H320C337.673 192 352 206.327 352 224V288C352 305.673 337.673 320 320 320H224C206.327 320 192 305.673 192 288V224ZM192 384C192 366.327 206.327 352 224 352H320C337.673 352 352 366.327 352 384V448C352 465.673 337.673 480 320 480H224C206.327 480 192 465.673 192 448V384ZM384 64C384 46.3269 398.327 32 416 32H512C529.673 32 544 46.3269 544 64V128C544 145.673 529.673 160 512 160H416C398.327 160 384 145.673 384 128V64ZM384 224C384 206.327 398.327 192 416 192H512C529.673 192 544 206.327 544 224V288C544 305.673 529.673 320 512 320H416C398.327 320 384 305.673 384 288V224ZM416 352C398.327 352 384 366.327 384 384V448C384 465.673 398.327 480 416 480H512C529.673 480 544 465.673 544 448V384C544 366.327 529.673 352 512 352H416ZM416 384V448H512V384H416Z" fill="black"/>
</svg>
